www/assets/icons/table_bar.svg

<svg xmlns="http://www.w3.org/2000/svg" width="24" height="24" viewBox="0 0 24 24" fill='currentColor'><path d="M22 7.5C22 5.57 17.52 4 12 4S2 5.57 2 7.5c0 1.81 3.95 3.31 9 3.48V15H9.35c-.82 0-1.55.5-1.86 1.26L6 20h2l1.2-3h5.6l1.2 3h2l-1.5-3.74c-.3-.76-1.04-1.26-1.85-1.26H13v-4.02c5.05-.17 9-1.67 9-3.48"/></svg>

<svg width="24" height="24" viewBox="0 0 24 24" xmlns="http://www.w3.org/2000/svg" fill='currentColor'><path d="M22 7.5C22 5.57 17.52 4 12 4C6.48 4 2 5.57 2 7.5C2 9.31 5.95 10.81 11 10.98V15H9.35C8.53 15 7.8 15.5 7.49 16.26L6 20H8L9.2 17H14.8L16 20H18L16.5 16.26C16.2 15.5 15.46 15 14.65 15H13V10.98C18.05 10.81 22 9.31 22 7.5Z"/></svg>
